img/elem/ElemThinLens.svg

<?xml version="1.0" encoding="UTF-8" standalone="no"?>
<!-- Created with Inkscape (http://www.inkscape.org/) -->
<svg
   xmlns:svg="http://www.w3.org/2000/svg"
   xmlns="http://www.w3.org/2000/svg"
   version="1.0"
   width="128"
   height="235"
   id="svg4410">
  <defs
     id="defs4412">
    <marker
       refX="0"
       refY="0"
       orient="auto"
       id="TriangleInS"
       style="overflow:visible">
      <path
         d="M 5.77,0 L -2.88,5 L -2.88,-5 L 5.77,0 z"
         transform="scale(-0.2,-0.2)"
         id="path3243"
         style="fill-rule:evenodd;stroke:#000000;stroke-width:1pt;marker-start:none" />
    </marker>
    <marker
       refX="0"
       refY="0"
       orient="auto"
       id="TriangleInM"
       style="overflow:visible">
      <path
         d="M 5.77,0 L -2.88,5 L -2.88,-5 L 5.77,0 z"
         transform="scale(-0.4,-0.4)"
         id="path3240"
         style="fill-rule:evenodd;stroke:#000000;stroke-width:1pt;marker-start:none" />
    </marker>
    <marker
       refX="0"
       refY="0"
       orient="auto"
       id="TriangleOutS"
       style="overflow:visible">
      <path
         d="M 5.77,0 L -2.88,5 L -2.88,-5 L 5.77,0 z"
         transform="scale(0.2,0.2)"
         id="path3252"
         style="fill-rule:evenodd;stroke:#000000;stroke-width:1pt;marker-start:none" />
    </marker>
    <marker
       refX="0"
       refY="0"
       orient="auto"
       id="TriangleOutM"
       style="overflow:visible">
      <path
         d="M 5.77,0 L -2.88,5 L -2.88,-5 L 5.77,0 z"
         transform="scale(0.4,0.4)"
         id="path3249"
         style="fill-rule:evenodd;stroke:#000000;stroke-width:1pt;marker-start:none" />
    </marker>
    <marker
       refX="0"
       refY="0"
       orient="auto"
       id="Arrow2Mend"
       style="overflow:visible">
      <path
         d="M 8.7185878,4.0337352 L -2.2072895,0.016013256 L 8.7185884,-4.0017078 C 6.97309,-1.6296469 6.9831476,1.6157441 8.7185878,4.0337352 z"
         transform="scale(-0.6,-0.6)"
         id="path3175"
         style="font-size:12px;fill-rule:evenodd;stroke-width:0.625;stroke-linejoin:round" />
    </marker>
    <marker
       refX="0"
       refY="0"
       orient="auto"
       id="Arrow2Send"
       style="overflow:visible">
      <path
         d="M 8.7185878,4.0337352 L -2.2072895,0.016013256 L 8.7185884,-4.0017078 C 6.97309,-1.6296469 6.9831476,1.6157441 8.7185878,4.0337352 z"
         transform="matrix(-0.3,0,0,-0.3,0.69,0)"
         id="path3181"
         style="font-size:12px;fill-rule:evenodd;stroke-width:0.625;stroke-linejoin:round" />
    </marker>
    <marker
       refX="0"
       refY="0"
       orient="auto"
       id="Arrow2Lend"
       style="overflow:visible">
      <path
         d="M 8.7185878,4.0337352 L -2.2072895,0.016013256 L 8.7185884,-4.0017078 C 6.97309,-1.6296469 6.9831476,1.6157441 8.7185878,4.0337352 z"
         transform="matrix(-1.1,0,0,-1.1,-1.1,0)"
         id="path3169"
         style="font-size:12px;fill-rule:evenodd;stroke-width:0.625;stroke-linejoin:round" />
    </marker>
    <marker
       refX="0"
       refY="0"
       orient="auto"
       id="Arrow1Lend"
       style="overflow:visible">
      <path
         d="M 0,0 L 5,-5 L -12.5,0 L 5,5 L 0,0 z"
         transform="matrix(-0.8,0,0,-0.8,-10,0)"
         id="path3151"
         style="fill-rule:evenodd;stroke:#000000;stroke-width:1pt;marker-start:none" />
    </marker>
  </defs>
  <g
     id="layer1">
    <path
       d="M 3.0332854,177.5 L 118.56981,177.5"
       id="path4468"
       style="fill:none;fill-rule:evenodd;stroke:#000000;stroke-width:1;stroke-linecap:butt;stroke-linejoin:miter;stroke-miterlimit:4;stroke-dasharray:8, 2, 1, 2;stroke-dashoffset:0;stroke-opacity:1" />
    <path
       d="M 117.36364,131 L 11.33311,217.76968"
       id="path4470"
       style="fill:none;fill-rule:evenodd;stroke:#000000;stroke-width:7;stroke-linecap:round;stroke-linejoin:miter;marker-start:none;marker-end:none;stroke-miterlimit:4;stroke-dasharray:none;stroke-opacity:1" />
    <path
       d="M 51.625,120.46875 L 48.5,125.53125 C 62.881318,154.20188 62.982302,194.07094 49.0625,225.5625 L 51.8125,229.5 L 77.09375,229.5 L 79.8125,225.5625 C 65.008814,194.07094 65.286574,154.20188 80.375,125.53125 L 77.28125,120.46875 L 51.625,120.46875 z"
       id="path4484"
       style="fill:none;fill-opacity:1;fill-rule:nonzero;stroke:#000000;stroke-width:3;stroke-linecap:butt;stroke-linejoin:miter;stroke-miterlimit:4;stroke-dashoffset:0;stroke-opacity:1" />
    <path
       d="M 77.675918,32.19641 A 69.272728,69.272728 0 0 1 86.005525,60.51556"
       transform="matrix(-1,0,0,-1,95.07219,239.1495)"
       id="path5460"
       style="opacity:1;fill:none;fill-opacity:1;fill-rule:nonzero;stroke:#000000;stroke-width:1;stroke-linecap:butt;stroke-linejoin:miter;marker-start:none;marker-end:none;stroke-miterlimit:4;stroke-dasharray:none;stroke-dashoffset:0;stroke-opacity:1" />
    <path
       d="M 60.46875,4.46875 C 47.210497,29.39426 47.210498,88.92804 60.46875,113.5 L 67.09375,113.5 C 80.352002,88.92804 80.351999,29.39426 67.09375,4.46875 L 60.46875,4.46875 z"
       id="path5474"
       style="fill:none;fill-opacity:1;fill-rule:nonzero;stroke:#000000;stroke-width:3;stroke-linecap:butt;stroke-linejoin:miter;stroke-miterlimit:4;stroke-dashoffset:0;stroke-opacity:1" />
    <path
       d="M 5,63.5 L 124.38139,63.5"
       id="path5476"
       style="fill:none;fill-rule:evenodd;stroke:#000000;stroke-width:1;stroke-linecap:butt;stroke-linejoin:miter;stroke-miterlimit:4;stroke-dasharray:8, 2, 1, 2;stroke-dashoffset:0;stroke-opacity:1" />
    <path
       d="M 59.636885,136.73001 L 72.36149,123.83139 M 58.770565,133.4223 L 65.36148,126.78594 M 66.77057,133.4223 L 73.36147,126.78594"
       id="path3371"
       style="fill:none;fill-rule:evenodd;stroke:#000000;stroke-width:1px;stroke-linecap:butt;stroke-linejoin:miter;stroke-opacity:1" />
    <path
       d="M 55.636885,224.73001 L 68.36149,211.83139 M 54.770565,221.4223 L 61.36148,214.78594 M 62.77057,221.4223 L 69.36147,214.78594"
       id="path5752"
       style="fill:none;fill-rule:evenodd;stroke:#000000;stroke-width:1px;stroke-linecap:butt;stroke-linejoin:miter;stroke-opacity:1" />
    <path
       d="M 55.636885,52.73001 L 68.36149,39.83139 M 54.770565,49.4223 L 61.36148,42.78594 M 62.77057,49.4223 L 69.36147,42.78594"
       id="path5754"
       style="fill:none;fill-rule:evenodd;stroke:#000000;stroke-width:1px;stroke-linecap:butt;stroke-linejoin:miter;stroke-opacity:1" />
    <path
       d="M 57.636885,88.73001 L 70.36149,75.83139 M 56.770565,85.4223 L 63.36148,78.78594 M 64.77057,85.4223 L 71.36147,78.78594"
       id="path5756"
       style="fill:none;fill-rule:evenodd;stroke:#000000;stroke-width:1px;stroke-linecap:butt;stroke-linejoin:miter;stroke-opacity:1" />
    <path
       d="M 115.36364,19 L 9.33311,105.76968"
       id="path5761"
       style="fill:none;fill-rule:evenodd;stroke:#000000;stroke-width:7;stroke-linecap:round;stroke-linejoin:miter;marker-start:none;marker-end:none;stroke-miterlimit:4;stroke-dasharray:none;stroke-opacity:1" />
    <path
       d="M 56.222673,32.73001 L 68.947278,19.83139 M 55.356353,29.4223 L 61.947268,22.78594 M 63.356358,29.4223 L 69.947258,22.78594"
       id="path5763"
       style="fill:none;fill-rule:evenodd;stroke:#000000;stroke-width:1px;stroke-linecap:butt;stroke-linejoin:miter;stroke-opacity:1" />
    <path
       d="M 7.0710679,183.91153 L 9.0156115,178.25468 L 12.020815,183.55798"
       id="path5878"
       style="fill:none;fill-rule:evenodd;stroke:#000000;stroke-width:1px;stroke-linecap:butt;stroke-linejoin:miter;stroke-opacity:1" />
    <path
       d="M 17.854446,200.8821 L 17.67767,206.89251 L 12.197592,204.06408"
       id="path5880"
       style="fill:none;fill-rule:evenodd;stroke:#000000;stroke-width:1px;stroke-linecap:butt;stroke-linejoin:miter;stroke-opacity:1" />
    <path
       d="M 77.675918,32.19641 A 69.272728,69.272728 0 0 1 86.005525,60.51556"
       transform="matrix(-1,0,0,-1,95.07219,125.50305)"
       id="path5882"
       style="opacity:1;fill:none;fill-opacity:1;fill-rule:nonzero;stroke:#000000;stroke-width:1;stroke-linecap:butt;stroke-linejoin:miter;marker-start:none;marker-end:none;stroke-miterlimit:4;stroke-dasharray:none;stroke-dashoffset:0;stroke-opacity:1" />
    <path
       d="M 7.0710679,70.265083 L 9.0156115,64.608233 L 12.020815,69.911533"
       id="path5884"
       style="fill:none;fill-rule:evenodd;stroke:#000000;stroke-width:1px;stroke-linecap:butt;stroke-linejoin:miter;stroke-opacity:1" />
    <path
       d="M 17.854446,87.235653 L 17.67767,93.246063 L 12.197592,90.417633"
       id="path5886"
       style="fill:none;fill-rule:evenodd;stroke:#000000;stroke-width:1px;stroke-linecap:butt;stroke-linejoin:miter;stroke-opacity:1" />
    <text
       x="15.910697"
       y="80.509216"
       id="text6521"
       xml:space="preserve"
       style="font-size:28px;font-style:italic;font-variant:normal;font-weight:normal;font-stretch:normal;text-align:start;line-height:100%;writing-mode:lr-tb;text-anchor:start;fill:#000000;fill-opacity:1;stroke:none;stroke-width:1px;stroke-linecap:butt;stroke-linejoin:miter;stroke-opacity:1;font-family:Times New Roman;-inkscape-font-specification:Times New Roman Italic"><tspan
         x="15.910697"
         y="80.509216"
         id="tspan6525">α</tspan></text>
    <text
       x="15.910697"
       y="194.50922"
       id="text5890"
       xml:space="preserve"
       style="font-size:28px;font-style:italic;font-variant:normal;font-weight:normal;font-stretch:normal;text-align:start;line-height:100%;writing-mode:lr-tb;text-anchor:start;fill:#000000;fill-opacity:1;stroke:none;stroke-width:1px;stroke-linecap:butt;stroke-linejoin:miter;stroke-opacity:1;font-family:Times New Roman;-inkscape-font-specification:Times New Roman Italic"><tspan
         x="15.910697"
         y="194.50922"
         id="tspan5892">α</tspan></text>
    <text
       x="74.032013"
       y="114.89632"
       id="text6342"
       xml:space="preserve"
       style="font-size:10px;font-style:italic;font-variant:normal;font-weight:normal;font-stretch:normal;text-align:start;line-height:125%;writing-mode:lr-tb;text-anchor:start;fill:#000000;fill-opacity:1;stroke:none;stroke-width:1px;stroke-linecap:butt;stroke-linejoin:miter;stroke-opacity:1;font-family:Times New Roman;-inkscape-font-specification:Times New Roman Italic"><tspan
         x="74.032013"
         y="114.89632"
         id="tspan6344"
         style="font-size:28px">F&gt;0</tspan></text>
    <text
       x="74.385567"
       y="200.65369"
       id="text5896"
       xml:space="preserve"
       style="font-size:10px;font-style:italic;font-variant:normal;font-weight:normal;font-stretch:normal;text-align:start;line-height:125%;writing-mode:lr-tb;text-anchor:start;fill:#000000;fill-opacity:1;stroke:none;stroke-width:1px;stroke-linecap:butt;stroke-linejoin:miter;stroke-opacity:1;font-family:Times New Roman;-inkscape-font-specification:Times New Roman Italic"><tspan
         x="74.385567"
         y="200.65369"
         id="tspan5898"
         style="font-size:28px">F&lt;0</tspan></text>
    <path
       d="M 94.398756,132.46952 L 119.8546,128.58043 L 112.78353,153.32917"
       id="path5900"
       style="fill:none;fill-rule:evenodd;stroke:#000000;stroke-width:7;stroke-linecap:round;stroke-linejoin:miter;stroke-miterlimit:4;stroke-dasharray:none;stroke-opacity:1" />
    <path
       d="M 94.398756,18.46952 L 119.8546,14.58043 L 112.78353,39.32917"
       id="path5902"
       style="fill:none;fill-rule:evenodd;stroke:#000000;stroke-width:7;stroke-linecap:round;stroke-linejoin:miter;stroke-miterlimit:4;stroke-dasharray:none;stroke-opacity:1" />
  </g>
</svg>

<svg height="235" width="128" xmlns="http://www.w3.org/2000/svg">
  <g fill="none" stroke="#000">
    <path d="m3.0332854 177.5h115.5365246" stroke-dasharray="8 2 1 2"/>
    <path d="m117.36364 131-106.03053 86.76968" stroke-linecap="round" stroke-width="7"/>
    <path d="m51.625 120.46875-3.125 5.0625c14.381318 28.67063 14.482302 68.53969.5625 100.03125l2.75 3.9375h25.28125l2.71875-3.9375c-14.803686-31.49156-14.525926-71.36062.5625-100.03125l-3.09375-5.0625z" stroke-width="3"/>
    <path d="m77.675918 32.19641a69.272728 69.272728 0 0 1 8.329607 28.31915" transform="matrix(-1 0 0 -1 95.07219 239.1495)"/>
    <path d="m60.46875 4.46875c-13.258253 24.92551-13.258252 84.45929 0 109.03125h6.625c13.258252-24.57196 13.258249-84.10574 0-109.03125z" stroke-width="3"/>
    <path d="m5 63.5h119.38139" stroke-dasharray="8 2 1 2"/>
    <path d="m59.636885 136.73001 12.724605-12.89862m-13.590925 9.59091 6.590915-6.63636m1.40909 6.63636 6.5909-6.63636"/>
    <path d="m55.636885 224.73001 12.724605-12.89862m-13.590925 9.59091 6.590915-6.63636m1.40909 6.63636 6.5909-6.63636"/>
    <path d="m55.636885 52.73001 12.724605-12.89862m-13.590925 9.59091 6.590915-6.63636m1.40909 6.63636 6.5909-6.63636"/>
    <path d="m57.636885 88.73001 12.724605-12.89862m-13.590925 9.59091 6.590915-6.63636m1.40909 6.63636 6.5909-6.63636"/>
    <path d="m115.36364 19-106.03053 86.76968" stroke-linecap="round" stroke-width="7"/>
    <path d="m56.222673 32.73001 12.724605-12.89862m-13.590925 9.59091 6.590915-6.63636m1.40909 6.63636 6.5909-6.63636"/>
    <path d="m7.0710679 183.91153 1.9445436-5.65685 3.0052035 5.3033"/>
    <path d="m17.854446 200.8821-.176776 6.01041-5.480078-2.82843"/>
    <path d="m77.675918 32.19641a69.272728 69.272728 0 0 1 8.329607 28.31915" transform="matrix(-1 0 0 -1 95.07219 125.50305)"/>
    <path d="m7.0710679 70.265083 1.9445436-5.65685 3.0052035 5.3033"/>
    <path d="m17.854446 87.235653-.176776 6.01041-5.480078-2.82843"/>
  </g>
  <text font-family="Times New Roman" font-size="28" font-style="italic" x="15.910697" y="80.509216"><tspan x="15.910697" y="80.509216">α</tspan></text>
  <text font-family="Times New Roman" font-size="28" font-style="italic" x="15.910697" y="194.50922"><tspan x="15.910697" y="194.50922">α</tspan></text>
  <text font-family="Times New Roman" font-size="10" font-style="italic" x="74.032013" y="114.89632"><tspan font-size="28" x="74.032013" y="114.89632">F&gt;0</tspan></text>
  <text font-family="Times New Roman" font-size="10" font-style="italic" x="74.385567" y="200.65369"><tspan font-size="28" x="74.385567" y="200.65369">F&lt;0</tspan></text>
  <path d="m94.398756 132.46952 25.455844-3.88909-7.07107 24.74874" fill="none" stroke="#000" stroke-linecap="round" stroke-width="7"/>
  <path d="m94.398756 18.46952 25.455844-3.88909-7.07107 24.74874" fill="none" stroke="#000" stroke-linecap="round" stroke-width="7"/>
</svg>
